src/assets/icons/copy.svg

<?xml version="1.0" encoding="utf-8"?>
<!-- Generator: Adobe Illustrator 19.1.0, SVG Export Plug-In . SVG Version: 6.00 Build 0)  -->
<svg version="1.1" id="Layer_1" xmlns="http://www.w3.org/2000/svg" xmlns:xlink="http://www.w3.org/1999/xlink" x="0px" y="0px"
	 viewBox="0 0 64 64" enable-background="new 0 0 64 64" xml:space="preserve">
<g id="Text-files">
	<path d="M53.9791489,9.1429005H50.010849c-0.0826988,0-0.1562004,0.0283995-0.2331009,0.0469999V5.0228
		C49.7777481,2.253,47.4731483,0,44.6398468,0h-34.422596C7.3839517,0,5.0793519,2.253,5.0793519,5.0228v46.8432999
		c0,2.7697983,2.3045998,5.0228004,5.1378999,5.0228004h6.0367002v2.2678986C16.253952,61.8274002,18.4702511,64,21.1954517,64
		h32.783699c2.7252007,0,4.9414978-2.1725998,4.9414978-4.8432007V13.9861002
		C58.9206467,11.3155003,56.7043495,9.1429005,53.9791489,9.1429005z M7.1110516,51.8661003V5.0228
		c0-1.6487999,1.3938999-2.9909999,3.1062002-2.9909999h34.422596c1.7123032,0,3.1062012,1.3422,3.1062012,2.9909999v46.8432999
		c0,1.6487999-1.393898,2.9911003-3.1062012,2.9911003h-34.422596C8.5049515,54.8572006,7.1110516,53.5149002,7.1110516,51.8661003z
		 M56.8888474,59.1567993c0,1.550602-1.3055,2.8115005-2.9096985,2.8115005h-32.783699
		c-1.6042004,0-2.9097996-1.2608986-2.9097996-2.8115005v-2.2678986h26.3541946
		c2.8333015,0,5.1379013-2.2530022,5.1379013-5.0228004V11.1275997c0.0769005,0.0186005,0.1504021,0.0469999,0.2331009,0.0469999
		h3.9682999c1.6041985,0,2.9096985,1.2609005,2.9096985,2.8115005V59.1567993z"/>
	<path d="M38.6031494,13.2063999H16.253952c-0.5615005,0-1.0159006,0.4542999-1.0159006,1.0158005
		c0,0.5615997,0.4544001,1.0158997,1.0159006,1.0158997h22.3491974c0.5615005,0,1.0158997-0.4542999,1.0158997-1.0158997
		C39.6190491,13.6606998,39.16465,13.2063999,38.6031494,13.2063999z"/>
	<path d="M38.6031494,21.3334007H16.253952c-0.5615005,0-1.0159006,0.4542999-1.0159006,1.0157986
		c0,0.5615005,0.4544001,1.0159016,1.0159006,1.0159016h22.3491974c0.5615005,0,1.0158997-0.454401,1.0158997-1.0159016
		C39.6190491,21.7877007,39.16465,21.3334007,38.6031494,21.3334007z"/>
	<path d="M38.6031494,29.4603004H16.253952c-0.5615005,0-1.0159006,0.4543991-1.0159006,1.0158997
		s0.4544001,1.0158997,1.0159006,1.0158997h22.3491974c0.5615005,0,1.0158997-0.4543991,1.0158997-1.0158997
		S39.16465,29.4603004,38.6031494,29.4603004z"/>
	<path d="M28.4444485,37.5872993H16.253952c-0.5615005,0-1.0159006,0.4543991-1.0159006,1.0158997
		s0.4544001,1.0158997,1.0159006,1.0158997h12.1904964c0.5615025,0,1.0158005-0.4543991,1.0158005-1.0158997
		S29.0059509,37.5872993,28.4444485,37.5872993z"/>
</g>
<g>
</g>
<g>
</g>
<g>
</g>
<g>
</g>
<g>
</g>
<g>
</g>
<g>
</g>
<g>
</g>
<g>
</g>
<g>
</g>
<g>
</g>
<g>
</g>
<g>
</g>
<g>
</g>
<g>
</g>
</svg>

<svg xmlns="http://www.w3.org/2000/svg" xmlns:xlink="http://www.w3.org/1999/xlink" viewBox="0 0 64 64" xmlns:v="https://vecta.io/nano"><path d="M53.979 9.143h-3.968c-.083 0-.156.028-.233.047V5.023C49.778 2.253 47.473 0 44.64 0H10.217C7.384 0 5.079 2.253 5.079 5.023v46.843c0 2.77 2.305 5.023 5.138 5.023h6.037v2.268c0 2.671 2.216 4.843 4.941 4.843h32.784c2.725 0 4.941-2.173 4.941-4.843V13.986c0-2.671-2.216-4.843-4.941-4.843zM7.111 51.866V5.023c0-1.649 1.394-2.991 3.106-2.991H44.64c1.712 0 3.106 1.342 3.106 2.991v46.843c0 1.649-1.394 2.991-3.106 2.991H10.217c-1.712 0-3.106-1.342-3.106-2.991zm49.778 7.291c0 1.551-1.306 2.812-2.91 2.812H21.195c-1.604 0-2.91-1.261-2.91-2.812v-2.268H44.64c2.833 0 5.138-2.253 5.138-5.023V11.128c.077.019.15.047.233.047h3.968c1.604 0 2.91 1.261 2.91 2.812v45.171z"/><use xlink:href="#B"/><use xlink:href="#B" y="8.127"/><use xlink:href="#B" y="16.254"/><path d="M28.444 37.587h-12.19c-.562 0-1.016.454-1.016 1.016s.454 1.016 1.016 1.016h12.19c.562 0 1.016-.454 1.016-1.016s-.454-1.016-1.016-1.016z"/><defs ><path id="B" d="M38.603 13.206H16.254c-.562 0-1.016.454-1.016 1.016s.454 1.016 1.016 1.016h22.349c.562 0 1.016-.454 1.016-1.016s-.454-1.016-1.016-1.016z"/></defs></svg>
